icons/square/48/steam_icon_115800.svg

<svg version="1.1" viewBox="0 0 48 48" xmlns="http://www.w3.org/2000/svg">
 <defs>
  <linearGradient id="bg" x2="0" y1="1" y2="47" gradientUnits="userSpaceOnUse">
   <stop stop-color="#cbbc86" offset="0"/>
   <stop stop-color="#c2b070" offset="1"/>
  </linearGradient>
 </defs>
 <path d="m1 43v0.25c0 2.216 1.784 4 4 4h38c2.216 0 4-1.784 4-4v-0.25c0 2.216-1.784 4-4 4h-38c-2.216 0-4-1.784-4-4zm0 0.5v0.5c0 2.216 1.784 4 4 4h38c2.216 0 4-1.784 4-4v-0.5c0 2.216-1.784 4-4 4h-38c-2.216 0-4-1.784-4-4z" opacity=".02"/>
 <path d="m1 43.25v0.25c0 2.216 1.784 4 4 4h38c2.216 0 4-1.784 4-4v-0.25c0 2.216-1.784 4-4 4h-38c-2.216 0-4-1.784-4-4z" opacity=".05"/>
 <path d="m1 43v0.25c0 2.216 1.784 4 4 4h38c2.216 0 4-1.784 4-4v-0.25c0 2.216-1.784 4-4 4h-38c-2.216 0-4-1.784-4-4z" opacity=".1"/>
 <rect x="1" y="1" width="46" height="46" rx="4" fill="url(#bg)"/>
 <path d="m1 39v4c0 2.216 1.784 4 4 4h38c2.216 0 4-1.784 4-4v-4c0 2.216-1.784 4-4 4h-38c-2.216 0-4-1.784-4-4z" opacity=".1"/>
 <g opacity=".1">
  <path d="m24 28 2 5-2 3-2-3 2-5zm12-15v1l-12 12-12-12v-1l12 8zm-20.086 8.125a5 5 0 0 0-3.9141 4.875 5 5 0 0 0 5 5 5 5 0 0 0 4.875-3.9082 4.25 4.25 0 0 1-2.625 0.9082 4.25 4.25 0 0 1-4.25-4.25 4.25 4.25 0 0 1 0.91406-2.625zm16.178 0a4.25 4.25 0 0 1 0.9082 2.625 4.25 4.25 0 0 1-4.25 4.25 4.25 4.25 0 0 1-2.625-0.91406 5 5 0 0 0 4.875 3.9141 5 5 0 0 0 5-5 5 5 0 0 0-3.9082-4.875z"/>
 </g>
 <g transform="translate(0 -1)" fill="#531">
  <path d="m24 28 2 5-2 3-2-3 2-5z"/>
  <path d="m36 13v1l-12 12-12-12v-1l12 8z"/>
  <path d="m15.914 21.125a5 5 0 0 0-3.9141 4.875 5 5 0 0 0 5 5 5 5 0 0 0 4.875-3.9082 4.25 4.25 0 0 1-2.625 0.9082 4.25 4.25 0 0 1-4.25-4.25 4.25 4.25 0 0 1 0.91406-2.625z"/>
  <path d="m32.092 21.125a4.25 4.25 0 0 1 0.9082 2.625 4.25 4.25 0 0 1-4.25 4.25 4.25 4.25 0 0 1-2.625-0.91406 5 5 0 0 0 4.875 3.9141 5 5 0 0 0 5-5 5 5 0 0 0-3.9082-4.875z"/>
 </g>
</svg>

<?xml version="1.0" encoding="UTF-8" standalone="no"?>
<svg xmlns="http://www.w3.org/2000/svg" version="1.1" viewBox="0 0 48 48">
	<defs>
		<linearGradient id="bg" gradientUnits="userSpaceOnUse" x1="0" x2="0" y1="1" y2="47">
			<stop offset="0" stop-color="#cbbc86"/>
			<stop offset="1" stop-color="#c2b070"/>
		</linearGradient>
	</defs>
	<g>
		<path opacity=".02" d="m1 43v0.25c0 2.216 1.784 4 4 4h38c2.216 0 4-1.784 4-4v-0.25c0 2.216-1.784 4-4 4h-38c-2.216 0-4-1.784-4-4zm0 0.5v0.5c0 2.216 1.784 4 4 4h38c2.216 0 4-1.784 4-4v-0.5c0 2.216-1.784 4-4 4h-38c-2.216 0-4-1.784-4-4z"/>
		<path opacity=".05" d="m1 43.25v0.25c0 2.216 1.784 4 4 4h38c2.216 0 4-1.784 4-4v-0.25c0 2.216-1.784 4-4 4h-38c-2.216 0-4-1.784-4-4z"/>
		<path opacity=".1" d="m1 43v0.25c0 2.216 1.784 4 4 4h38c2.216 0 4-1.784 4-4v-0.25c0 2.216-1.784 4-4 4h-38c-2.216 0-4-1.784-4-4z"/>
		<rect fill="url(#bg)" rx="4" height="46" width="46" y="1" x="1"/>
		<path opacity=".1" d="m1 39v4c0 2.216 1.784 4 4 4h38c2.216 0 4-1.784 4-4v-4c0 2.216-1.784 4-4 4h-38c-2.216 0-4-1.784-4-4z"/>
	</g>
	<g opacity=".1">
		<path d="M 24,28 l 2,5 -2,3 -2,-3 2,-5 z M 36,13 l 0,1 -12,12 -12,-12 0,-1 12,8 z M 15.914062 21.125 A 5 5 0 0 0 12 26 A 5 5 0 0 0 17 31 A 5 5 0 0 0 21.875 27.091797 A 4.25 4.25 0 0 1 19.25 28 A 4.25 4.25 0 0 1 15 23.75 A 4.25 4.25 0 0 1 15.914062 21.125 z M 32.091797 21.125 A 4.25 4.25 0 0 1 33 23.75 A 4.25 4.25 0 0 1 28.75 28 A 4.25 4.25 0 0 1 26.125 27.085938 A 5 5 0 0 0 31 31 A 5 5 0 0 0 36 26 A 5 5 0 0 0 32.091797 21.125 z"/>
	</g>
	<g transform="translate(0 -1)" fill="#531">
		<path d="m 24,28 2,5 -2,3 -2,-3 2,-5 z"/>
		<path d="m 36,13 0,1 -12,12 -12,-12 0,-1 12,8 z"/>
		<path d="M 15.914062 21.125 A 5 5 0 0 0 12 26 A 5 5 0 0 0 17 31 A 5 5 0 0 0 21.875 27.091797 A 4.25 4.25 0 0 1 19.25 28 A 4.25 4.25 0 0 1 15 23.75 A 4.25 4.25 0 0 1 15.914062 21.125 z "/>
		<path d="M 32.091797 21.125 A 4.25 4.25 0 0 1 33 23.75 A 4.25 4.25 0 0 1 28.75 28 A 4.25 4.25 0 0 1 26.125 27.085938 A 5 5 0 0 0 31 31 A 5 5 0 0 0 36 26 A 5 5 0 0 0 32.091797 21.125 z "/>
	</g>
</svg>
